X: 1
T: Jack Campbell
C: Anselm Lingnau
R: strathspey
Z: 2006 John Chambers <jc:trillian.mit.edu>
M: C
L: 1/16
K: D
"A7"A3G \
| "D"FA3 A3F "G"GB3 B3d | "A7"cA3 A3c "D"defg a4 \
| "D"FA3 A3F "G"GB3 B3d | "A7"cA3 B3c "D"d4 ||
d3A \
| "D"FA3 A3F "G"GB3 B3d | "A7"cA3 A3c "D"defg a4 \
| "D"fd3 d3f "Em"ge3 e3d | "A7"dcBA B3c "D"d4 |]
"A7"a3g \
| "D"fa3 a3f agfe d4 | "A7"ce3 e3f gfed cA3 \
| "D"fa3 a3f agfe d4 | "Em"gfed "A7"fedc "D"d4 ||
"A7"a3g \
| "D"fa3 a3f "(Bm)"agfe d4 | "Em"e3B edcB "A7"cA3 A3G \
| "D"FA3 d3f "Em"ge3 e3d | "A7"dcBA B3c "D"d4 |]
